X:459
T:Willie Davie
B:Kerr's Merry Melodies Bk 1 (c1870s)
Z:Nigel Gatherer
M:4/4
L:1/8
K:A
e2 ef  edcd | e2 ef efga  | e2 ef  edcd | Bcde f2 e2 :|
a2 Aa  fedc | a2 ea f2 e2 | a2 Aa  fedc | Bcde f2 e2  |
a2 Aa  fedc | a2 ea f2 eg | abaf   ecAc | Bcde f2 e2 ||
c2 ea c2 ea | c2 ea gfed  | c2 ea c2 ea | Bcde f2 e2 :|
a2 Aa  fedc | a2 ea f2 e2 | a2 Aa  fedc | Bcde f2 e2  |
a2 Aa  fedc | a2 ea f2 eg | abaf   ecAc | Bcde f2 e2 |]
<end>
<start>
